archdroid-icon-theme/Archdroid-Amber/emblems/scalable/emblem-archlinux.svg

<?xml version="1.0" encoding="UTF-8" standalone="no"?>
<!-- Created with Inkscape (http://www.inkscape.org/) -->

<svg
   xmlns:dc="http://purl.org/dc/elements/1.1/"
   xmlns:cc="http://creativecommons.org/ns#"
   xmlns:rdf="http://www.w3.org/1999/02/22-rdf-syntax-ns#"
   xmlns:svg="http://www.w3.org/2000/svg"
   xmlns="http://www.w3.org/2000/svg"
   xmlns:xlink="http://www.w3.org/1999/xlink"
   xmlns:sodipodi="http://sodipodi.sourceforge.net/DTD/sodipodi-0.dtd"
   xmlns:inkscape="http://www.inkscape.org/namespaces/inkscape"
   width="256"
   height="256"
   id="svg2424"
   sodipodi:version="0.32"
   inkscape:version="0.91 r13725"
   version="1.0"
   sodipodi:docname="emblem-archlinux.svg"
   inkscape:output_extension="org.inkscape.output.svg.inkscape"
   inkscape:export-filename="/home/thayer/archlinux-logo-contest/archer-full-detail.png"
   inkscape:export-xdpi="90"
   inkscape:export-ydpi="90">
  <defs
     id="defs2426">
    <linearGradient
       inkscape:collect="always"
       xlink:href="#path1082_2_"
       id="linearGradient2240"
       gradientUnits="userSpaceOnUse"
       gradientTransform="matrix(-0.3937741,0,0,0.393752,978.34969,416.9815)"
       x1="541.33502"
       y1="104.50665"
       x2="606.91248"
       y2="303.14029" />
    <linearGradient
       gradientUnits="userSpaceOnUse"
       id="path1082_2_"
       y2="129.3468"
       x2="112.49853"
       y1="6.1372099"
       x1="112.49854"
       gradientTransform="translate(287,-83)">
      <stop
         id="stop193"
         offset="0"
         style="stop-color:#ffffff;stop-opacity:0" />
      <stop
         id="stop195"
         offset="1"
         style="stop-color:#ffffff;stop-opacity:0.27450982;" />
      <midPointStop
         id="midPointStop197"
         style="stop-color:#FFFFFF"
         offset="0" />
      <midPointStop
         id="midPointStop199"
         style="stop-color:#FFFFFF"
         offset="0.5" />
      <midPointStop
         id="midPointStop201"
         style="stop-color:#000000"
         offset="1" />
    </linearGradient>
  </defs>
  <sodipodi:namedview
     id="base"
     pagecolor="#ffffff"
     bordercolor="#666666"
     borderopacity="1.0"
     gridtolerance="10000"
     guidetolerance="10"
     objecttolerance="10"
     inkscape:pageopacity="0.0"
     inkscape:pageshadow="2"
     inkscape:zoom="1"
     inkscape:cx="128"
     inkscape:cy="128"
     inkscape:document-units="px"
     inkscape:current-layer="g2210"
     inkscape:window-width="668"
     inkscape:window-height="511"
     inkscape:window-x="696"
     inkscape:window-y="30"
     showgrid="false"
     inkscape:window-maximized="0" />
  <metadata
     id="metadata2429">
    <rdf:RDF>
      <cc:Work
         rdf:about="">
        <dc:format>image/svg+xml</dc:format>
        <dc:type
           rdf:resource="http://purl.org/dc/dcmitype/StillImage" />
      </cc:Work>
    </rdf:RDF>
  </metadata>
  <g
     inkscape:label="Layer 1"
     inkscape:groupmode="layer"
     id="layer1"
     transform="translate(-269.51783,-73.601247)">
    <g
       id="g2424"
       transform="matrix(1.3473684,0,0,1.3473684,-632.88236,-513.34366)">
      <g
         id="g2210">
        <path
           style="fill:#1793d1;fill-opacity:1;fill-rule:evenodd;stroke:none;stroke-width:1;stroke-linecap:round;stroke-linejoin:round;stroke-miterlimit:10;stroke-dasharray:none;stroke-opacity:1"
           d="M 128 0 C 116.60518 27.937051 109.68663 46.237163 97 73.34375 C 104.7785 81.588957 114.33826 91.155503 129.84375 102 C 113.17383 95.140423 101.81018 88.271496 93.3125 81.125 C 77.076039 115.00489 51.621645 163.24639 0 256 C 40.562707 232.58244 72.007597 218.13833 101.3125 212.625 C 100.05874 207.22065 99.388995 201.34748 99.4375 195.25 L 99.46875 193.96875 C 100.11254 167.97477 113.63809 147.98651 129.65625 149.34375 C 145.6744 150.70098 158.14379 172.88102 157.5 198.875 C 157.37873 203.77122 156.8095 208.47582 155.84375 212.84375 C 184.83328 218.51691 215.98162 232.89667 256 256 C 248.10807 241.47038 241.03949 228.38017 234.3125 215.90625 C 223.71641 207.69356 212.66949 197.00882 190.125 185.4375 C 205.6208 189.46395 216.72684 194.12 225.375 199.3125 C 156.97985 71.972668 151.45422 55.040376 128 0 z "
           id="path2518"
           transform="matrix(0.7421875,0,0,0.7421875,669.75015,435.62318)" />
        <path
           style="fill:#ffffff;fill-opacity:0.16568047;fill-rule:evenodd;stroke:none;stroke-width:36.09999847;stroke-linecap:butt;stroke-linejoin:round;stroke-miterlimit:10;stroke-opacity:1"
           d="M 818.22607,548.55277 C 777.04464,492.65769 767.49922,447.60796 765.0814,436.85262 C 787.04877,487.52122 786.89873,488.14257 818.22607,548.55277 z "
           id="path2522"
           sodipodi:nodetypes="ccc" />
        <path
           style="fill:url(#linearGradient2240);fill-opacity:1;fill-rule:evenodd;stroke:none;stroke-width:0.71416688;stroke-linecap:round;stroke-linejoin:round;stroke-miterlimit:10;stroke-dasharray:none;stroke-opacity:1"
           d="M 765.09805,436.43495 C 764.04164,439.032 763.01246,441.55215 762.03653,443.9496 C 760.95538,446.60545 759.92725,449.14088 758.90542,451.6266 C 757.88368,454.11235 756.87103,456.53816 755.86709,458.93251 C 754.86311,461.32697 753.85641,463.6942 752.82876,466.07606 C 751.80118,468.45783 750.7672,470.86451 749.67447,473.31239 C 748.58174,475.76035 747.44112,478.25743 746.24185,480.85023 C 745.04248,483.44305 743.78544,486.12838 742.43814,488.94471 C 742.25152,489.33479 742.02502,489.77873 741.83511,490.17396 C 747.59032,496.26959 754.67644,503.32372 766.11856,511.3263 C 753.77835,506.24838 745.35345,501.16879 739.05191,495.87953 C 738.72474,496.54744 738.43804,497.14384 738.10098,497.82777 C 737.65733,498.72801 737.12466,499.75092 736.66299,500.68055 C 735.85332,502.34087 735.00725,504.04631 734.13492,505.80629 C 733.79968,506.47281 733.50544,507.04912 733.16079,507.73133 C 727.65346,518.78398 720.82117,532.01437 712.03164,548.45887 C 736.12721,534.88306 762.11697,515.29645 809.32779,532.15394 C 806.96071,527.67075 804.7846,523.46638 802.74087,519.51356 C 800.69717,515.56062 798.79841,511.85806 797.03531,508.35755 C 795.27234,504.85712 793.64319,501.55686 792.11831,498.4308 C 790.59345,495.30481 789.17999,492.3543 787.85074,489.52455 C 786.5214,486.69485 785.26968,483.97191 784.09341,481.36048 C 782.91707,478.74908 781.79633,476.24733 780.73037,473.77626 C 779.6643,471.30506 778.6438,468.87908 777.64566,466.47035 C 776.64743,464.06155 775.67299,461.65857 774.7001,459.23402 C 774.35238,458.36764 774.00457,457.46512 773.6564,456.58998 C 770.99301,450.33729 768.2582,443.85835 765.09805,436.43495 z "
           id="path2520" />
      </g>
    </g>
  </g>
</svg>

<svg xmlns="http://www.w3.org/2000/svg" viewBox="0 0 256 256"><defs><linearGradient id="0" gradientUnits="userSpaceOnUse" gradientTransform="matrix(-.39377 0 0 .39375 978.35 416.98)" x1="541.34" y1="104.51" x2="606.91" y2="303.14"><stop stop-color="#fff" stop-opacity="0"/><stop offset="1" stop-color="#fff" stop-opacity=".275"/></linearGradient></defs><g transform="matrix(1.34737 0 0 1.34737-902.4-586.94)" fill-rule="evenodd"><path d="m128 0c-11.395 27.937-18.313 46.24-31 73.34 7.778 8.245 17.338 17.812 32.844 28.656-16.67-6.86-28.03-13.729-36.531-20.875-16.236 33.88-41.691 82.12-93.31 174.88 40.563-23.418 72.01-37.862 101.31-43.37-1.254-5.404-1.924-11.278-1.875-17.375l.031-1.281c.644-25.994 14.169-45.982 30.19-44.625 16.02 1.357 28.488 23.537 27.844 49.53-.121 4.896-.69 9.601-1.656 13.969 28.99 5.673 60.14 20.05 100.16 43.16-7.892-14.53-14.961-27.62-21.688-40.09-10.596-8.213-21.643-18.897-44.19-30.469 15.496 4.03 26.602 8.683 35.25 13.875-68.4-127.34-73.921-144.27-97.37-199.31" transform="matrix(.74219 0 0 .74219 669.75 435.62)" fill="#1793d1"/><path d="m818.23 548.55c-41.18-55.895-50.727-100.94-53.14-111.7 21.967 50.669 21.817 51.29 53.14 111.7" fill="#fff" fill-opacity=".166"/><path d="m765.1 436.43c-1.056 2.597-2.086 5.117-3.062 7.515-1.081 2.656-2.109 5.191-3.131 7.677-1.022 2.486-2.034 4.912-3.038 7.306-1 2.394-2.01 4.762-3.038 7.144-1.028 2.382-2.062 4.788-3.154 7.236-1.093 2.448-2.233 4.945-3.433 7.538-1.199 2.593-2.456 5.278-3.804 8.094-.187.39-.413.834-.603 1.229 5.755 6.096 12.841 13.15 24.283 21.15-12.34-5.078-20.765-10.158-27.07-15.447-.327.668-.614 1.264-.951 1.948-.444.9-.976 1.923-1.438 2.853-.81 1.66-1.656 3.366-2.528 5.126-.335.667-.629 1.243-.974 1.925-5.507 11.05-12.34 24.283-21.13 40.728 24.1-13.576 50.09-33.16 97.3-16.305-2.367-4.483-4.543-8.688-6.587-12.64-2.044-3.953-3.942-7.655-5.706-11.156-1.763-3.5-3.392-6.801-4.917-9.927-1.525-3.126-2.938-6.076-4.268-8.906-1.329-2.83-2.581-5.553-3.757-8.164-1.176-2.611-2.297-5.113-3.363-7.584-1.066-2.471-2.087-4.897-3.085-7.306-.998-2.409-1.973-4.812-2.946-7.236-.348-.866-.696-1.769-1.044-2.644-2.663-6.253-5.398-12.732-8.558-20.16" fill="url(#0)"/></g></svg>
